X:1
T:MARIA MARI'
T:Maria Marì
T: Eduardo Di Capua
T:Vincenzo Russo
T:'Mmiez'a stu ciardeniello, ce ride 'a malvarosa... Nu lietto 'e fronne 'e rosa aggio fatto pe' te... Viene che 'a notte è doce, 'o cielo ch'è nu manto... Tu duorme e io te canto 'a nonna a fianco a te... Oje Marí, oje Marí, ........
T:Pare che giá s'arape na sénga 'e fenestella... Maria cu 'a manella, nu segno a me mme fa! Sòna chitarra mia! Maria s'è scetata!... Na scicca serenata, facímmole sentí: Oje Marí, oje Marí,
T:IMSLP - Pubblico dominio
T:IMSLP - Pubblico dominio
T:IMSLP - Pubblico dominio
T:IMSLP - Pubblico dominio
C:Eduardo Di Capua
Z:Vincenzo Russo
Z:IMSLP - Pubblico dominio
%%score ( 1 2 ) { 3 | ( 4 5 ) }
L:1/8
Q:1/4=78
M:6/8
K:Eb
V:1 treble nm="Voice"
V:2 treble 
V:3 treble nm="Piano"
V:4 bass 
V:5 bass 
V:1
"^Andantino" z2 z |: z6 | z6 | z6 |"^Canto" z6 | z6 |!f! (e3- e d/ c/ =B/ d/ | c/=B/ c2- c2) z | %8
w: ||||||A\- _ ra\- pe\- te, fe\-|ne\- sta, _ _|
 ((c3 c) c/=B/ c/ A/ | G/ ^F/ G2 G2) z |!p! (=F3- F F/ =E/ F/ G/ | _E3 E2) z | %12
w: fam\- _ m'af\- fac\- cià Ma\-|ri _ a, _|ca _ ston\- go mmiez' 'a|vi- a|
 (D3- D D/ ^C/ D/ E/ | C3- C) z z | z6 |!f! (e3- e d/ c/ =B/ d/ | c/=B/ c2- c2) z | %17
w: spe\- _ ru\- to p''a ve|dé _||Nun _ tro\- vo n'o\- ra~'e|pa _ ce; *|
 ((c3 c) c/=B/ c/ A/ | G/ ^F/ G2 G2) z | (F3- F F/ =E/ F/ G/ | _E3 E2) z | (D3- D D/ ^C/ D/ E/ || %22
w: 'A _ not\- t~'a fac\- cio|juor- * no _|sem\- _ pe pe stà ccaat\-|tuor\- no,|spe\- _ ran\- no~'e ce par\-|
[K:C] =C2) z z2 z | z2 z z!mf! c d |[Q:1/4=80]"^Più mosso" c3- c A B | G3-"^cresc." G G A | %26
w: là.|Ah, Ma\-|rì _ Ah, Ma\-|rì _ quan\- ta|
 A A B{/c} B B G | A3- A2 z |!p! B3 c2 d | (3(B/c/B/) A2- A A A | %30
w: suon\- no ca per\- de pe|te; _|fam\- m'ad\- dur\-|mi _ _ _ _ ab\- brac\-|
"^rall."[Q:3/8=70] B B B B c/ !fermata!z/ d | (3(A/B/A/) G2- G!mf! c d | c3 c A B | %33
w: cia\- to nu po\- co cu|tte; _ _ _ _ Ah, Ma\-|rì! _ Ah, Ma\-|
 G3 G"^cresc." c d | e e ^d e e g | (3(e/f/e/) =d2- d2 z |!f! f3 d2 e |{ed} c3- c A B | %38
w: rì! _ quan\- ta|suon\- no ca per\- do pe|tte, _ _ _ _|fam\- m'ad\- dur\-|mi _ oj Ma\-|
 G3- G d e |1 c3- c z z :|2 c3 c z z |] %41
w: rì! _ oj Ma\-|rì! _|rì! _|
V:2
 x3 |: x6 | x6 | x6 | x6 | x6 | x6 | x6 | x4 c/ =B/ x | G/^F/ G2- G2 x | x6 | x6 | x6 | x6 | x6 | %15
 x6 | x6 | x4 c/ =B/ x | G/^F/ G2- G2 x | x6 | x6 | x6 ||[K:C] x6 | x6 | x6 | x6 | x6 | x6 | x6 | %29
 x6 | x6 | x6 | x6 | x6 | x6 | x6 | x6 | x6 | x6 |1 x6 :|2 x6 |] %41
V:3
 (D/E/)FG |: E !>!G2 (D/E/)FG | z !>!G2 =B/c/de | c !>!G2 (D/E/)FG | C[G,CE] z z [G,CE] z | %5
 z [G,CE] z z [G,CE] z |!f! (e3- ed/c/=B/d/ | c/=B/ c2- c2) z | (c3- cc/=B/c/A/ | G/^F/ G2- G2) z | %10
!p! (=F3- FF/=E/F/G/ | _E3 E2) z | (D3- DD/^C/D/E/) | C[G,CE] z z [G,CE] z | %14
 z [G,CE] z z [G,CE] z |!f! (e3- ed/c/=B/d/ | c/=B/ c2- c2) z | (c3- cc/=B/c/A/ | G/^F/ G2- G2) z | %19
 (F3- FF/=E/F/G/ | _E3 E2) z | (D3- DD/^C/D/E/ ||[K:C] =C)[G,CE] z z [G,CE] z | %23
 z [G,CE] z z!mf! cd | c3- cAB | G3-"_cresc." G[EG][EA] | [FA][FA][EB]{/c} [EB][EB][EG] | %27
 [FA]3- [FA]2 z |!p! [GB]3 [Ac]2 [Ac] | (3([Bd]/[ce]/[Bd]/) [FA]2- [FA][FA][FA] | %30
"_rall." [GB][GB][GB] B[cd]/ !fermata!z/ z | (3([FA]/[GB]/[FA]/) [EG]2- [EG]!mf! cd | c3- cAB | %33
 G3- G"_cresc."cd | ee^d eeg | (3(e/f/e/) =d2- d2 z |!f! f3 d2 e |{ed} c3- cAB | G3- Gde |1 %39
 c2 z (D/_E/)FG :|2 c[egc'][egc'] [egc'] z z |] %41
V:4
 =B,,[D,G,]G,, |: C,[E,G,]G,, =B,,[D,G,]G,, | C,[E,G,]G,, D,[F,G,]G,, | C,[E,G,]G,, =B,,[D,G,]G,, | %4
 C,zG,, C,zG,, | C,zG,, C,zG,, | C,[E,G,]G,, =B,,[F,G,]G,, | C,[E,G,]G,, C,[E,G,]C, | %8
 F,[A,C]C, F,[A,C]C, | E,[G,C]C, E,[G,C]C, | D,[G,=B,]G,, =B,,[D,G,]G,, | C,[E,G,]C, A,,[C,E,]A,, | %12
 F,,[A,,D,]F,, G,,[=B,,F,]G,, | C,zG,, C,zG,, | C,zG,, C,zG,, | C,[E,G,]G,, =B,,[F,G,]G,, | %16
 C,[E,G,]G,, C,[E,G,]C, | F,[A,C]C, F,[A,C]C, | E,[G,C]C, E,[G,C]C, | D,[G,=B,]G,, =B,,[D,G,]G,, | %20
 C,[E,G,]C, A,,[C,E,]A,, | F,,[A,,D,]F,, G,,[=B,,F,]G,, ||[K:C] C,zG,, C,zG,, | %23
 C,zG,, C,[E,G,]G,, |"^Più mosso" C,[E,G,]G,, C,[E,G,]G,, | C,[E,G,]G,, C,[E,G,]G,, | %26
 C,[E,G,]G,, C,[E,G,]G,, | C,[F,G,]G,, C,[F,G,]G,, | C,[F,G,]G,, C,[F,G,]G,, | %29
 C,[F,G,]G,, C,[F,G,]G,, | C,[F,G,]G,, C,[F,G,]/ !fermata!z/ z | C,[E,G,]G,, C,[E,G,]G,, | %32
 C,[E,G,]G,, C,[E,G,]G,, | C,[E,G,]G,, C,[E,G,]G,, | C,[F,G,]G,, C,[F,G,]G,, | %35
 D,[F,A,]A,, D,[F,A,]A,, | D,[F,A,]D, _A,[DF][DF] | G,3 ^F,3 | G,3 G,,3 |1 %39
 C,[E,_G,]G,, B,,[D,G,][D,G,] :|2 [C,E,][G,,G,][E,,E,] [C,,C,] z z |] %41
V:5
 x3 |: x6 | x6 | x6 | x6 | x6 | x6 | x6 | x6 | x6 | x6 | x6 | x6 | x6 | x6 | x6 | x6 | x6 | x6 | %19
 x6 | x6 | x6 ||[K:C] x6 | x6 | x6 | x6 | x6 | x6 | x6 | x6 | x6 | x6 | x6 | x6 | x6 | x6 | %36
 x3 _A,3 | G,[CE][CE] ^F,[C_E][CE] | G,[C=E][CE] G,,[B,,F,][B,,F,] |1 x6 :|2 x6 |] %41

